X:22
T:Jarvilan Sottiisi  (Jarvila family's schottische)
M:2/4
L:1/16
Q:1/8=150
R:schottische
K:F
|: AB | "F" c2c2 {d}cBdA | c2c2 ~c2AB | cdcB ABcf | "C" e2d2 dBGA | !
BcBA GABf | e4 e2GA | BcBA Gceg | "F" ~b2a2 ~a2AB | !
c2c2 {d}cBdA | c2c2 ~c2fg | {f}a2(3aba gaba | "Bb" ~g2f2 f4 | !
{f}BfB2 BfB2 | "F" AAcf faaf | "C" cceg bgeg | "F" f2a2 "fine" ~f2 :| !
|: eg | "A" {g}b3a a2 ^c2 | "Dm" defe d3^c |
"A"^caa2 caa2 | "Dm" ~g2f>g fed2 | !
"G" a3g g2=B2 | "C" cded c3d/2c/2 | "G" =Bcde faBd | "C" c2c2 c2 :| !
|: ga | "C7" bbe2 bbe2 | "F" ~a2f2 ~a2~f2 | "C" e2G2 e2d2 | "F" Acfe ~d2c2 | !
"C7" bbe2 bbe2 | "F" ~a2f2 ~a2~f2 |
"C" e>G^FG Bceg | "F" f2a2 "D.C. al fine" f2 :||
